!!!OTL: Divertimento in D, 3. Satz, KV 136/03
!!!system-decoration: [(s1,s2,s3,s4)]
**kern	**kern	**kern	**kern	**kern	**kern	**kern	**kern	**kern	**kern	**kern	**kern	**kern	**kern	**kern	**kern
*part4	*part4	*part4	*part4	*part3	*part3	*part3	*part3	*part2	*part2	*part2	*part2	*part1	*part1	*part1	*part1
*staff16	*staff15	*staff14	*staff13	*staff12	*staff11	*staff10	*staff9	*staff8	*staff7	*staff6	*staff5	*staff4	*staff3	*staff2	*staff1
*I"Violoncello e Basso	*	*	*	*I"Viola	*	*	*	*I"Violino II	*	*	*	*I"Violino I	*	*	*
*clefF4	*clefC3	*clefG2	*clefG2
*k[f#c#]	*k[f#c#]	*k[f#c#]	*k[f#c#]
*M2/4	*M2/4	*M2/4	*M2/4
8D	8f#y	8a	8dd
8r	8r	8r	8r
8DD	8a	8dd	8ff#y
8r	8r	8r	8r
=2	=2	=2	=2
8GG	8g	8b	8ee
8r	8r	8r	8r
4r	4r	4r	4r
=3	=3	=3	=3
8EE	8e	8b	8gg
8r	8r	8r	8r
8AA	8e	8g	8cc#y
8r	8r	8r	8r
=4	=4	=4	=4
8DD	8d	8f#y	8dd
8r	8r	8r	8r
4r	4r	4r	4r
=5	=5	=5	=5
8DL	8dL	8f#yL	2aa
8D	8d	8f#y	.
8D	8d	8f#y	.
8DJ	8dJ	8f#yJ	.
=6	=6	=6	=6
8DL	8dL	8f#yL	(8ggL
8D	8d	8f#y	8ff#y)
8D	8d	8f#y	(8ee
8DJ	8dJ	8f#yJ	8ddJ)
=7	=7	=7	=7
8DL	(4.e	8gL	(4.cc#y
8D	.	8g	.
8D	.	8g	.
8DJ	16dL	8gJ	16ddL
.	16c#yJ)	.	16eeJ)
=8	=8	=8	=8
8DL	8dL	8f#yL	4dd
8D	8d	8f#y	.
8D	8d	8f#y	4r
8DJ	8dJ	8f#yJ	.
!!LO:LB
=9	=9	=9	=9
8DDL	8dL	8f#yL	2aa
8DD	8d	8f#y	.
8DD	8d	8f#y	.
8DDJ	8dJ	8f#yJ	.
=10	=10	=10	=10
8DDL	8dL	8aL	(8ggL
8DD	8d	8a	8ff#y)
8DD	8d	8a	(8ee
8DDJ	8dJ	8aJ	8ddJ)
=11	=11	=11	=11
8DDL	(4.c#y	8aL	(4.ee
8DD	.	8a	.
8DD	.	8a	.
8DDJ	16dL	8aJ	16ff#yL
.	16eJ)	.	16ggJ)
=12	=12	=12	=12
8DDL	8dL	8aL	4ff#y
8DD	8f#y	8a	.
8DD	8f#y	8a	4r
8DDJ	8f#yJ	8aJ	.
=13	=13	=13	=13
8DDL	8dL	16gL	4bb
.	.	16a	.
8DD	8d	16g	.
.	.	16f#yJ	.
.	.	.	(<16qddd
8DD	8d	16gL	8ccc#yL)
.	.	16e	.
8DDJ	8dJ	16a	16bb
.	.	16gJ	16ccc#yJ
=14	=14	=14	=14
8DDL	8DL	16f#yL	4ddd
.	.	16g	.
8DD	8D	16a	.
.	.	16gJ	.
8DD	8D	16f#yL	8r
.	.	16e	.
8DDJ	8DJ	16f#y	8dd
.	.	16dJ	.
=15	=15	=15	=15
8AAL	8AL	16c#yL	(4.ee
.	.	16d	.
8AA	8A	16c#y	.
.	.	16BJ	.
8AA	8A	16AL	.
.	.	16c#y	.
8AAJ	8AJ	16d	16ff#yL
.	.	16eJ	16ggJ)
!!LO:LB
=16	=16	=16	=16
8DL	8AL	16dL	4ff#y
.	.	16e	.
8D	8A	16f#y	.
.	.	16gJ	.
8D	8A	16aL	4r
.	.	16b	.
8DJ	8AJ	16cc#y	.
.	.	16ddJ	.
=17	=17	=17	=17
8DDL	8dL	16gL	4bb
.	.	16a	.
8DD	8d	16g	.
.	.	16f#yJ	.
.	.	.	(<16qddd
8DD	8d	16gL	8ccc#yL)
.	.	16e	.
8DDJ	8dJ	16a	16bb
.	.	16gJ	16ccc#yJ
=18	=18	=18	=18
8DDL	8DL	16f#yL	4ddd
.	.	16g	.
8DD	8D	16a	.
.	.	16gJ	.
8DD	8D	16f#yL	8r
.	.	16e	.
8DDJ	8DJ	16f#y	8dd
.	.	16dJ	.
=19	=19	=19	=19
8AAL	8AL	16c#yL	(4.ee
.	.	16d	.
8AA	8A	16c#y	.
.	.	16BJ	.
8AA	8A	16AL	.
.	.	16c#y	.
8AAJ	8AJ	16d	16ff#yL
.	.	16eJ	16ggJ)
=20	=20	=20	=20
8DL	8AL	16dL	4ff#y
.	.	16e	.
8D	8A	16f#y	.
.	.	16gJ	.
8D	8A	16aL	4r
.	.	16b	.
8DJ	8AJ	16cc#y	.
.	.	16ddJ	.
!!LO:LB
=21	=21	=21	=21
8DL	8dL	4a	4ff#y
8D	8f#y	.	.
8D	8e	(8.bLT	(8.gg#LT
8DJ	8eJ	.	.
.	.	32a	32ff#y
.	.	32bJ)	32gg#yJ)
=22	=22	=22	=22
8C#y	8e	8a	8aa
(8c#yL	(8aL	(8eeL	(8aaL
8B	8g#	8dd	8bb
8AJ)	8aJ)	8cc#yJ)	8ccc#yJ)
=23	=23	=23	=23
8G#	8e	8b	8ddd
8r	8r	8r	8r
8A	8e	8a	8ccc#y
8r	8r	8r	8r
=24	=24	=24	=24
8E	8e	8g#	8bb
8r	8r	8r	8r
4r	4r	4r	4r
=25	=25	=25	=25
4A	8AL	2r	2r
.	8A	.	.
4r	8A	.	.
.	8AJ	.	.
=26	=26	=26	=26
4AA	8AL	8r	8r
.	8A	8AL	8cc#yL
4r	8A	8B	8dd
.	8AJ	8c#yJ	8eeJ
=27	=27	=27	=27
4D	8AL	8dL	8ff#yL
.	8A	8e	8gg#
4r	8A	8f#yJ	8aaJ
.	8AJ	8r	8r
=28	=28	=28	=28
4DD	8AL	8r	8r
.	8A	8f#yL	8aaL
4r	8A	8e	8gg
.	8AJ	8dJ	8ff#yJ
=29	=29	=29	=29
4AA	8AL	8c#yL	8eeL
.	8A	8B	8dd
4r	8A	8AJ	8cc#yJ
.	8AJ	8r	8r
=30	=30	=30	=30
4A	8AL	8r	8r
.	8A	8AL	8cc#yL
4r	8A	8B	8dd
.	8AJ	8c#yJ	8eeJ
=31	=31	=31	=31
4D	8AL	8dL	8ff#yL
.	8A	8e	8gg#
4r	8A	8f#yJ	8aaJ
.	8AJ	8r	8r
=32	=32	=32	=32
4DD	8AL	8r	8r
.	8A	8f#yL	8aaL
4r	8A	8e	8gg#
.	8AJ	8dJ	8ff#yJ
=33	=33	=33	=33
4AA	8AL	8c#yL	8eeL
.	8A	8B	8dd
4r	8A	8AJ	8cc#yJ
.	8AJ	8r	8r
=34	=34	=34	=34
8AA	8A	8r	8r
8c#yL	8eL	8aL	8aaL
8B	8g#	8b	8bb
8AJ	8aJ	8cc#yJ	8ccc#yJ
=35	=35	=35	=35
8G#L	(8aL	(8cc#yL	(8ccc#yL
8G#y	8bJ)	8ddJ)	8dddJ)
8G#y	[4b	[4dd	[4ddd
8G#yJ	.	.	.
=36	=36	=36	=36
8EL	8bL]	8ddL]	8dddL]
8E	8bJ	8ddJ	8bbJ
.	(<16qa	.	.
.	.	(<16qcc#y	.
.	.	.	(<16qaa
8E	8g#L)	8bL)	8gg#L)
8EJ	16f#y	16a	16ff#y
.	16eJ	16g#J	16eeJ
=37	=37	=37	=37
8AAL	4cc#y	4ee	4eee
8AA	.	.	.
8AA	[4cc#y	[4ee	[4eee
8AAJ	.	.	.
!!LO:LB
=38	=38	=38	=38
8AA	8cc#y]	8ee]	8eee]
8c#yL	8eL	8aL	8aaL
8B	8g#	8b	8bb
8AJ	8aJ	8cc#yJ	8ccc#yJ
=39	=39	=39	=39
8G#L	(8aL	(8cc#yL	(8ccc#yL
8G#y	8bJ)	8ddJ)	8dddJ)
8G#y	[4b	[4dd	[4ddd
8G#yJ	.	.	.
=40	=40	=40	=40
8EL	8bL]	8ddL]	8dddL]
8E	8bJ	8ddJ	8bbJ
.	(<16qa	.	.
.	.	(<16qcc#y	.
.	.	.	(<16qaa
8E	8g#L)	8bL)	8gg#L)
8EJ	16f#y	16a	16ff#y
.	16eJ	16g#J	16eeJ
=41	=41	=41	=41
8AAL	4cc#y	4ee	4eee
8AA	.	.	.
8AA	[4cc#y	[4ee	[4eee
8AAJ	.	.	.
=42	=42	=42	=42
8AAL	8cc#yL]	8eeL]	8eeeL]
8AA	8a	8ee	8ccc#y
8AA	8e	8cc#y	8aa
8AAJ	8c#yJ	8aJ	8eeJ
=43	=43	=43	=43
8DL	4d	4a	4ff#y
8D	.	.	.
8D	[4d	[4a	[4ff#y
8DJ	.	.	.
=44	=44	=44	=44
8DL	8dL]	8aL]	8ff#yL]
8D	8a	8f#y	8dd
8D	8f#y	8d	8b
8DJ	8dJ	8BJ	8f#yJ
=45	=45	=45	=45
8EL	4e	4c#y	2e
8E	.	.	.
8E	16eL	16aL	.
.	16e	16a	.
8EJ	16e	16a	.
.	16eJ	16aJ	.
!!LO:LB
=46	=46	=46	=46
8EEL	16dL	16aL	2bbT
.	16d	16a	.
8EE	16d	16a	.
.	16dJ	16aJ	.
8EE	16dL	16g#L	.
.	16d	16g#y	.
8EEJ	16d	16g#y	.
.	16dJ	16g#yJ	.
=47	=47	=47	=47
4AA	4c#y	4a	16aaL
.	.	.	16a
.	.	.	16b
.	.	.	16cc#yJ
4r	4r	4r	16ddL
.	.	.	16ee
.	.	.	16ff#y
.	.	.	16gg#J
=48	=48	=48	=48
4AA	4c#y	4e	16aaL
.	.	.	16ee
.	.	.	16ff#y
.	.	.	16gg#J
4r	4r	4r	16aaL
.	.	.	16bb
.	.	.	16aa
.	.	.	16bbJ
=49	=49	=49	=49
*	*^	*	*
4AA	4e	4c#y	4a	16ccc#yL
.	.	.	.	16bb
.	.	.	.	16aa
.	.	.	.	16bbJ
4r	4r	4ryy	4r	16ccc#yL
.	.	.	.	16ddd
.	.	.	.	16ccc#y
.	.	.	.	16dddJ
*	*v	*v	*	*
=50	=50	=50	=50
8C#yL	8eL	8aL	8eeeL
8C#y	8e	8a	(8ccc#y
8C#y	8e	8a	8aa
8C#yJ	8eJ	8aJ	8ggnJ)
=51	=51	=51	=51
4D	4d	4a	4ff#y
.	.	.	(<16qbb
4r	4r	4r	8aaL)
.	.	.	16gg
.	.	.	16ff#yJ
!!LO:LB
=52	=52	=52	=52
.	.	.	(<16qgg
4D	4f#y	4a	8ff#yL)
.	.	.	16ee
.	.	.	16ddJ
.	.	.	(<16qee
4D	4f#y	4a	8ddL)
.	.	.	16cc#y
.	.	.	16bJ
=53	=53	=53	=53
8EL	16eL	16aL	2a
.	16e	16a	.
8E	16e	16a	.
.	16eJ	16aJ	.
8E	16eL	16aL	.
.	16e	16a	.
8EJ	16e	16a	.
.	16eJ	16aJ	.
=54	=54	=54	=54
8EEL	16dL	16g#L	2bT
.	16d	16g#y	.
8EE	16d	16g#y	.
.	16dJ	16g#yJ	.
8EE	16dL	16g#yL	.
.	16d	16g#y	.
8EEJ	16d	16g#y	.
.	16dJ	16g#yJ	.
=55	=55	=55	=55
4AA	4c#y	8a	8a
.	.	(8cc#yL	(8eeL
8r	8r	8bJ)	8ddJ)
8E	8e	8dd	8gg# 8b
=56	=56	=56	=56
4AA	4e	8cc#y 8e	8aa 8a
.	.	(8cc#yL	(8eeL
8r	8r	8bJ)	8ddJ)
8EE	8e	8dd 8e	8gg# 8b
=57	=57	=57	=57
4AA	4e	4cc#y 4e	4aa 4a
4AA	4A	4a 4e 4A	4a 4e 4c#y
=58	=58	=58	=58
4AA	4A	4a 4e 4A	4a 4e 4c#y
4r	4r	4r	4r
=59:|!	=59:|!	=59:|!	=59:|!
2r	2r	4.a	2r
.	.	8a	.
=60	=60	=60	=60
2r	2r	8gL	2r
.	.	8f#y	.
.	.	8g	.
.	.	8eJ	.
=61	=61	=61	=61
2r	2r	8f#yL	4.aa
.	.	8e	.
.	.	8f#y	.
.	.	8dJ	8aa
=62	=62	=62	=62
2r	2r	8eL	8ggL
.	.	8d	8ff#y
.	.	8e	8gg
.	.	8c#yJ	8eeJ
=63	=63	=63	=63
4.d	2r	8dL	8ff#yL
.	.	8e	8gg
.	.	8f#y	8aa
8d	.	8eJ	8ggJ
=64	=64	=64	=64
8cnL	2r	4d	(4.ff#y
8B	.	.	.
8c	.	[4dd	.
8AJ	.	.	16ggL
.	.	.	16aaJ)
=65	=65	=65	=65
8BL	4.dd	8ddL]	(4.ggT
8A	.	8ccn	.
8B	.	8dd	.
8GJ	8dd	8bJ	16ff#yL
.	.	.	16ggJ)
!!LO:LB
=66	=66	=66	=66
8AL	8ccnL	8f#yL	4ccn
8G	8b	8g	.
8A	8cc	8f#y	4cccn
8F#yJ	8aJ	8aJ 8d	.
=67	=67	=67	=67
4G	8bL	4g	4bb
.	8a	.	.
4r	8b	4r	[4ee
.	8gJ	.	.
=68	=68	=68	=68
2r	8aL	2ccn	4ee]
.	8g	.	.
.	8a	.	4dd#
.	8f#yJ	.	.
=69	=69	=69	=69
2r	8gL	2b	4.ee
.	8f#y	.	.
.	8g	.	.
.	8eJ	.	8gg
=70	=70	=70	=70
4.F#y	4f#y	2r	4a#
.	(4A#	.	(4f#y
8F#y	.	.	.
=71	=71	=71	=71
8EL	4B	2r	4g#
8D	.	.	.
8E	8c#yL)	.	4a#)
8C#yJ	8eJ	.	.
=72	=72	=72	=72
4BB	4d	4.bb	4b
(4BB	4r	.	4r
.	.	8bb	.
=73	=73	=73	=73
4C#y	2r	8aaL	2r
.	.	8gg	.
4D#)	.	8aa	.
.	.	8ff#yJ	.
!!LO:LB
=74	=74	=74	=74
4E	4.e	4gg	2r
4r	.	(4ee	.
.	8e	.	.
=75	=75	=75	=75
2r	8dL	4ff#y	2r
.	8c#y	.	.
.	8d	4gg#)	.
.	8BJ	.	.
=76	=76	=76	=76
2r	4A	4aa	4.a
.	(4a	4r	.
.	.	.	8a
=77	=77	=77	=77
2r	4b	2r	8gnL
.	.	.	8f#y
.	4cc#y)	.	8g
.	.	.	8eJ
=78	=78	=78	=78
2r	4dd	4.ddd	8f#yL
.	.	.	8e
.	4d	.	8f#y
.	.	8ddd	8dJ
=79	=79	=79	=79
2r	[2A	8ccc#yL	8eL
.	.	8bb	8d
.	.	8ccc#y	8e
.	.	8aaJ	8c#yJ
=80	=80	=80	=80
2r	4A]	4.bb	8dL
.	.	.	8B
.	[4G	.	8e
.	.	8bb	8dJ
=81	=81	=81	=81
2r	4G]	4.aa	8c#yL
.	.	.	8AJ
.	8F#yL	.	[4d
.	8GJ	8ff#y	.
!!LO:LB
=82	=82	=82	=82
2r	2A	2eeT	4d]
.	.	.	4c#y
=83	=83	=83	=83
4BB-	4fn 4B-	4ffn 4dd	4ddd 4dd 4d
4r	4r	4r	4r
=84	=84	=84	=84
4GG#	4d 4Bn	4b 4d	4ffn 4dd
4r	4r	4r	4r
=85	=85	=85	=85
4AA	4.a 4.e 4.A	4cc#y 4e 4A	4ee 4cc#y 4a
4r	.	4r	4r
.	8a	.	.
=86	=86	=86	=86
2r	8gL	2r	2r
.	8f	.	.
.	8g	.	.
.	8eJ	.	.
=87	=87	=87	=87
8D	8f#y	8a	8dd
8r	8r	8r	8r
8DD	8a	8dd	8ff#y
8r	8r	8r	8r
=88	=88	=88	=88
8GG	8g	8b	8ee
8r	8r	8r	8r
4r	4r	4r	4r
=89	=89	=89	=89
8EE	8e	8b	8gg
8r	8r	8r	8r
8AA	8e	8g	8cc#y
8r	8r	8r	8r
=90	=90	=90	=90
8DD	8d	8f#y	8dd
8r	8r	8r	8r
4r	4r	4r	4r
=91	=91	=91	=91
8DL	8dL	8f#yL	2aa
8D	8d	8f#y	.
8D	8d	8f#y	.
8DJ	8dJ	8f#yJ	.
=92	=92	=92	=92
8DL	8dL	8f#yL	(8ggL
8D	8d	8f#y	8ff#y)
8D	8d	8f#y	(8ee
8DJ	8dJ	8f#yJ	8ddJ)
=93	=93	=93	=93
8DL	(4.e	8gL	(4.cc#y
8D	.	8g	.
8D	.	8g	.
8DJ	16dL	8gJ	16ddL
.	16c#yJ)	.	16eeJ)
=94	=94	=94	=94
8DL	4d	8f#yL	4dd
8D	.	8f#y	.
8D	4r	8f#y	4r
8DJ	.	8f#yJ	.
=95	=95	=95	=95
8DDL	8dL	8f#yL	2aa
8DD	8d	8f#y	.
8DD	8d	8f#y	.
8DDJ	8dJ	8f#yJ	.
=96	=96	=96	=96
8DDL	8dL	8aL	(8ggL
8DD	8d	8a	8ff#y)
8DD	8d	8a	(8ee
8DDJ	8dJ	8aJ	8ddJ)
=97	=97	=97	=97
8DDL	(4.c#y	8aL	(4.ee
8DD	.	8a	.
8DD	.	8a	.
8DDJ	16dL	8aJ	16ff#yL
.	16eJ)	.	16ggJ)
!!LO:LB
=98	=98	=98	=98
8DDL	8dL	8aL	4ff#y
8DD	8d	8a	.
8DD	8d	8a	4r
8DDJ	8dJ	8aJ	.
=99	=99	=99	=99
8DL	8dL	16gL	4bb
.	.	16a	.
8D	8d	16g	.
.	.	16f#yJ	.
.	.	.	(<16qddd
8D	8d	16gL	8ccc#yL)
.	.	16e	.
8DJ	8dJ	16a	16bb
.	.	16gJ	16ccc#yJ
=100	=100	=100	=100
8DDL	8DL	16f#yL	4ddd
.	.	16g	.
8DD	8D	16a	.
.	.	16gJ	.
8DD	8D	16f#yL	8r
.	.	16e	.
8DDJ	8DJ	16f#y	8dd
.	.	16dJ	.
=101	=101	=101	=101
8AAL	8AL	16c#yL	(4.ee
.	.	16d	.
8AA	8A	16c#y	.
.	.	16BJ	.
8AA	8A	16AL	.
.	.	16c#y	.
8AAJ	8AJ	16d	16ff#yL
.	.	16eJ	16ggJ)
=102	=102	=102	=102
8DL	8AL	16dL	4ff#y
.	.	16e	.
8D	8A	16f#y	.
.	.	16gJ	.
8D	8A	16aL	4r
.	.	16b	.
8DJ	8AJ	16cc#y	.
.	.	16ddJ	.
!!LO:LB
=103	=103	=103	=103
8DL	8dL	16gL	4bb
.	.	16a	.
8D	8d	16g	.
.	.	16f#yJ	.
.	.	.	(<16qddd
8D	8d	16gL	8ccc#yL)
.	.	16e	.
8DJ	8dJ	16a	16bb
.	.	16gJ	16ccc#yJ
=104	=104	=104	=104
8DDL	8DL	16f#yL	4ddd
.	.	16g	.
8DD	8D	16a	.
.	.	16gJ	.
8DD	8D	16f#yL	8r
.	.	16e	.
8DDJ	8DJ	16f#y	8dd
.	.	16dJ	.
=105	=105	=105	=105
8AAL	8AL	16c#yL	(4.ee
.	.	16d	.
8AA	8A	16c#y	.
.	.	16BJ	.
8AA	8A	16AL	.
.	.	16c#y	.
8AAJ	8AJ	16d	16ff#yL
.	.	16eJ	16ggJ)
=106	=106	=106	=106
8DL	8AL	16dL	4ff#y
.	.	16e	.
8D	8A	16f#y	.
.	.	16gJ	.
8D	8A	16aL	4r
.	.	16b	.
8DJ	8AJ	16cc#y	.
.	.	16ddJ	.
=107	=107	=107	=107
8GL	8GL	4d	4b
8G	8g	.	.
8G	8a	(8.eLT	(8.cc#yLT
8GJ	8AJ	.	.
.	.	32d	32b
.	.	32eJ)	32cc#yJ)
=108	=108	=108	=108
8F#y	8A	8d	8dd
(8F#yL	(8aL	(8ddL	(8ff#yL
8E	8cc#y	8ee	8gg
8DJ)	8ddJ)	8ff#yJ)	8aaJ)
!!LO:LB
=109	=109	=109	=109
8C#y	8a	8ee	8gg
8r	8r	8r	8r
8D	8a	8dd	8ff#y
8r	8r	8r	8r
=110	=110	=110	=110
8AA	8a	8cc#y	8ee
8r	8r	8r	8r
4r	4r	4r	4r
=111	=111	=111	=111
4D	8dL	2r	2r
.	8d	.	.
4r	8d	.	.
.	8dJ	.	.
=112	=112	=112	=112
4DD	8dL	8r	8r
.	8d	8dL	8ff#yL
4r	8d	8e	8gg
.	8dJ	8f#yJ	8aaJ
=113	=113	=113	=113
4GG	8dL	8gL	8bbL
.	8d	8a	8ccc#y
4r	8d	8bJ	8dddJ
.	8dJ	8r	8r
=114	=114	=114	=114
4G	8dL	8r	8r
.	8d	8bL	8dddL
4r	8d	8a	8ccc#y
.	8dJ	8gJ	8bbJ
=115	=115	=115	=115
4D	8DL	8f#yL	8aaL
.	8D	8e	8gg
4r	8D	8dJ	8ff#yJ
.	8DJ	8r	8r
=116	=116	=116	=116
4DD	8DL	8r	8r
.	8D	8dL	8ff#yL
4r	8D	8e	8gg
.	8DJ	8f#yJ	8aaJ
=117	=117	=117	=117
4GG	8DL	8gL	8bbL
.	8D	8a	8ccc#y
4r	8D	8bJ	8dddJ
.	8DJ	8r	8r
=118	=118	=118	=118
4GG	8DL	8r	8r
.	8D	8bL	8dddL
4r	8D	8a	8ccc#y
.	8DJ	8gJ	8bbJ
=119	=119	=119	=119
4DD	8DL	8f#yL	8aaL
.	8D	8e	8gg
4r	8D	8dJ	8ff#yJ
.	8DJ	8r	8r
=120	=120	=120	=120
8DD	8D	8r	8r
8F#yL	8dL	8dL	8ddL
8E	8e	8c#y	8ee
8DJ	8f#yJ	8dJ	8ff#yJ
=121	=121	=121	=121
8C#yL	(8f#yL	(8dL	(8ff#yL
8C#y	8gJ)	8eJ)	8ggJ)
8C#y	[4g	[4e	[4gg
8C#yJ	.	.	.
=122	=122	=122	=122
8AAL	8gL]	8eL]	8ggL]
8AA	8eJ	8gJ	8eeJ
.	(<16qd	.	.
.	.	(<16qf#y	.
.	.	.	(<16qdd
8AA	8c#yL)	8eL)	8cc#yL)
8AAJ	16B	16d	16b
.	16AJ	16c#yJ	16aJ
=123	=123	=123	=123
8DDL	4f#y	4a	4aa
8DD	.	.	.
8DD	[4f#y	[4a	[4aa
8DDJ	.	.	.
=124	=124	=124	=124
8DD	8f#y]	8a]	8aa]
8F#yL	8dL	8dL	8ddL
8E	8e	8c#y	8ee
8DJ	8f#yJ	8dJ	8ff#yJ
!!LO:LB
=125	=125	=125	=125
8C#yL	(8f#yL	(8dL	(8ff#yL
8C#y	8gJ)	8eJ)	8ggJ)
8C#y	[4g	[4e	[4gg
8C#yJ	.	.	.
=126	=126	=126	=126
8AAL	8gL]	8eL]	8ggL]
8AA	8eJ	8gJ	8eeJ
.	(<16qd	.	.
.	.	(<16qf#y	.
.	.	.	(<16qdd
8AA	8c#yL)	8eL)	8cc#yL)
8AAJ	16B	16d	16b
.	16AJ	16c#yJ	16aJ
=127	=127	=127	=127
8DDL	4f#y	4a	4aa
8DD	.	.	.
8DD	4f#y	[4a	[4aa
8DDJ	.	.	.
=128	=128	=128	=128
8DL	8dL	8aL]	8aaL]
8D	8d	8a	8ff#y
8D	8d	8a	8dd
8DJ	8dJ	8aJ	8aJ
=129	=129	=129	=129
8GL	8dL	4g	4bb
8G	8d	.	.
8G	8d	[4b	[4ddd
8GJ	8dJ	.	.
=130	=130	=130	=130
8GGL	8dL	8bL]	8dddL]
8GG	8d	8gg	8bb
8GG	8d	8dd	8gg
8GGJ	8dJ	8bJ	8ddJ
=131	=131	=131	=131
8AAL	16f#yL	16aL	2a
.	16f#y	16a	.
8AA	16f#y	16a	.
.	16f#yJ	16aJ	.
8AA	16aL	16ddL	.
.	16a	16dd	.
8AAJ	16a	16dd	.
.	16aJ	16ddJ	.
!!LO:LB
=132	=132	=132	=132
8AAL	16gL	16ddL	2eeT
.	16g	16dd	.
8AA	16g	16dd	.
.	16gJ	16ddJ	.
8AA	16gL	16cc#yL	.
.	16g	16cc#y	.
8AAJ	16g	16cc#y	.
.	16gJ	16cc#yJ	.
=133	=133	=133	=133
4D	4f#y	4dd	16ddL
.	.	.	16d
.	.	.	16e
.	.	.	16f#yJ
4r	4r	4r	16gL
.	.	.	16a
.	.	.	16b
.	.	.	16cc#yJ
=134	=134	=134	=134
4DD	4d	4a 4f#y	16ddL
.	.	.	16a
.	.	.	16b
.	.	.	16cc#yJ
4r	4r	4r	16ddL
.	.	.	16ee
.	.	.	16ff#y
.	.	.	16ggJ
=135	=135	=135	=135
4DD	4d	4ff#y 4a	16aaL
.	.	.	16dd
.	.	.	16ee
.	.	.	16ff#yJ
4r	4r	4r	16ggL
.	.	.	16aa
.	.	.	16bb
.	.	.	16ccc#yJ
=136	=136	=136	=136
8FF#yL	(8f#yL	8ddL	8dddL
8FF#y	8a	8dd	(8cccn
8FF#y	8g	8dd	8bb
8FF#yJ	8f#yJ)	8ddJ	8aa#J)
=137	=137	=137	=137
4GG	4g	4dd	4bb
.	.	.	(<16qccc
4r	4r	4r	8bbL)
.	.	.	16aa
.	.	.	16ggJ
!!LO:LB
=138	=138	=138	=138
.	.	.	(<16qaa
4GG	4d	4b	8ggL)
.	.	.	16ff#y
.	.	.	16eeJ
.	.	.	(<16qee
4GG	4d	4e	8ddL)
.	.	.	16cc#y
.	.	.	16bJ
=139	=139	=139	=139
8AAL	16dL	16f#yL 16A	4.aa 4.a
.	16d	16f#y 16A	.
8AA	16d	16f#y 16A	.
.	16dJ	16f#yJ 16A	.
8AA	16dL	16f#yL 16A	.
.	16d	16f#y 16A	.
8AAJ	16d	16f#y 16A	8dd
.	16dJ	16f#yJ 16A	.
=140	=140	=140	=140
8AAL	16c#yL	16gL 16A	2eeT
.	16c#y	16g 16A	.
8AA	16c#y	16g 16A	.
.	16c#yJ	16gJ 16A	.
8AA	16c#yL	16gL 16A	.
.	16c#y	16g 16A	.
8AAJ	16c#y	16g 16A	.
.	16c#yJ	16gJ 16A	.
=141	=141	=141	=141
4D	4d	8f#y 8A	8dd
.	.	(8ff#yL	(8aaL
8r	8r	8eeJ)	8ggJ)
8AA	8e	8gg 8a	8ccc#y 8a
=142	=142	=142	=142
4D	4d	8ff#y 8a	8ddd 8a
.	.	(8ff#yL	(8aaL
8r	8r	8eeJ)	8ggJ)
8AA	8e	8gg 8a	8ccc#y 8a
=143	=143	=143	=143
4D	4d	4ff#y 4a 4d	4ddd 4a 4d
4DD	4a 4d	4ff#y 4a 4d	4ddd 4ff#y 4d
=144	=144	=144	=144
4DD	4a 4d	4ff#y 4a 4d	4ddd 4ff#y 4d
4r	4r	4r	4r
=:|!	=:|!	=:|!	=:|!
*-	*-	*-	*-
!!!RDF**kern: < = below
